64x64/apps/com.github.gkarsay.parlatype.svg

<svg height="64" width="64" xmlns="http://www.w3.org/2000/svg"><rect height="56" opacity=".2" rx="16.8" width="56" x="4" y="5"/><rect fill="#bdc0b9" height="56" rx="16.8" width="56" x="4" y="4"/><path d="m19.4 44.6-10.49 10.49a16.745 16.745 0 0 0 11.89 4.91h22.4c4.654 0 8.852-1.874 11.89-4.91l-10.49-10.49h-12.6z" opacity=".3"/><path d="m55.09 8.91-10.49 10.49v25.2l10.49 10.49a16.745 16.745 0 0 0 4.91-11.89v-22.4c0-4.654-1.874-8.852-4.91-11.89zm-46.18 0a16.745 16.745 0 0 0 -4.91 11.89v22.4c0 4.654 1.874 8.852 4.91 11.89l10.49-10.49v-25.2z" opacity=".15"/><rect height="40" opacity=".2" rx="8.571" width="40" x="12" y="13"/><rect fill="#eceeeb" height="40" rx="8.571" width="40" x="12" y="12"/><g fill="#17191e"><path d="m32 18c-7.732 0-14 6.268-14 14a14 14 0 0 0 5.6 11.184v-4.184h1.556c-1.887-1.84-3.152-4.364-3.156-7 0-5.412 4.588-10 10-10s10 4.588 10 10c0 2.634-1.262 5.157-3.145 7h2.945v2.98a14 14 0 0 0 4.2-9.98c0-7.732-6.268-14-14-14z"/><rect height="14.358" rx="5.096" ry="5.208" transform="matrix(.9613 -.27548 .29553 .95533 0 0)" width="8.608" x="6.14" y="36.66"/><rect height="14.358" rx="5.096" ry="5.208" transform="matrix(-.9613 -.27548 -.29553 .95533 0 0)" width="8.608" x="-55.01" y="19.02"/></g><path d="m20.8 4c-9.305 0-16.8 7.494-16.8 16.8v1c0-9.305 7.494-16.8 16.8-16.8h22.4c9.305 0 16.8 7.494 16.8 16.8v-1c0-9.305-7.494-16.8-16.8-16.8z" fill="#f4f4f7" opacity=".2"/></svg>

<svg xmlns="http://www.w3.org/2000/svg" width="64" height="64" version="1"><rect style="opacity:.2" width="56" height="56" x="4" y="5" rx="16.8" ry="16.8"/><rect style="fill:#bdc0b9" width="56" height="56" x="4" y="4" rx="16.8" ry="16.8"/><path style="opacity:.3" d="M19.4 44.6 8.91 55.09A16.745 16.745 0 0 0 20.8 60h22.4c4.654 0 8.852-1.874 11.89-4.91L44.6 44.6H32z"/><path style="opacity:.15" d="M55.09 8.91 44.6 19.4v25.2l10.49 10.49A16.745 16.745 0 0 0 60 43.2V20.8c0-4.654-1.874-8.852-4.91-11.89zM8.91 8.91A16.745 16.745 0 0 0 4 20.8v22.4c0 4.654 1.874 8.852 4.91 11.89L19.4 44.6V19.4z"/><rect style="opacity:.2" width="40" height="40" x="12" y="13" rx="8.571" ry="8.571"/><rect style="fill:#eceeeb" width="40" height="40" x="12" y="12" rx="8.571" ry="8.571"/><path style="fill:#17191e" d="M32 18c-7.732 0-14 6.268-14 14a14 14 0 0 0 5.6 11.184V39h1.556c-1.887-1.84-3.152-4.364-3.156-7 0-5.412 4.588-10 10-10s10 4.588 10 10c0 2.634-1.262 5.157-3.145 7H41.8v2.98A14 14 0 0 0 46 32c0-7.732-6.268-14-14-14z"/><rect style="fill:#17191e" width="8.608" height="14.358" x="6.14" y="36.66" rx="5.096" ry="5.208" transform="matrix(.9613 -.27548 .29553 .95533 0 0)"/><rect style="fill:#17191e" width="8.608" height="14.358" x="-55.01" y="19.02" rx="5.096" ry="5.208" transform="matrix(-.9613 -.27548 -.29553 .95533 0 0)"/><path style="opacity:.2;fill:#f4f4f7" d="M20.8 4C11.495 4 4 11.494 4 20.8v1C4 12.495 11.494 5 20.8 5h22.4C52.505 5 60 12.494 60 21.8v-1C60 11.495 52.506 4 43.2 4H20.8z"/></svg>
